X: 3424
T: EVER TRUE WALTZ
%R: waltz
B: James Kerr "Merry Melodies" v.3 p.48 #424
Z: 2016 John Chambers <jc:trillian.mit.edu>
M: 3/4
L: 1/8
K: C
[e6G6] | [^d6^F6] | [e6G6] | [c6E6] |\
[c6A6] | [A4F4][c2A2] | [G6-E6-] | [G2E2]z2z2 |\
[A6F6] | [c4A4][d2A2] | ([e6G6] | [c6E6]) |\
[c6^F6] | [B4^F4][c2F2] | [d6-=F6-] | [d2F2]z2[^d2^F2] |\
[e6G6] | [^d6^F6] |
[e6G6] | [c6E6] |\
[c6A6] | [A4F4][c2A2] | [G6-E6-] | [G4E4]z2 |\
[g6B6] | [^f6A6] | [=f6d6] | [e6c6] | [d6F6] |\
[A4F4][B2F2] | [c6-E6-] | [c2E2] || g^fga |\
b2zbb2- | b2b3a | a2zgg2- | g2a3g |
g2zff2- | f2g3f | f2zee2 | z2g^fga |\
b2zbb2- | b2b3a | a2zgg2- | g2a3g |\
ggg2B2 | ggg2B2 | [c2E2]z[cE][c2E2] | [c6E6] |]

%%sep 1 1 500
%%sep 1 1 500

